X: 1
T: Briarpicker Brown
R: reel
%S: s:2 b:13(6+7)
S: Roaring Jelly collection (R-137)
Z:
M: C|
K: D
AB | "D"d2B2 A2FA | BAFE D2A2 | dcdf "A"edea |[1,3 "D"fedA "A"B2AB :|[2,4 "D"fd-d2 d2 :: fg | "D"a4 a2fa |
| bafa "A"e2fg | "D"a2ab a2f2 | "A"e2d2 B2A2 || "D"fa-a2 a2fa | bafa "A"e2de | "D"fedB "A"ABdf | "D"ed-d2 d2 :|
